X:1
T:Bethena.
T:“BETHENA”
T:By  SCOTT  JOPLIN. Composer of “Maple Leaf Rag”
T:A  CONCERT  WALTZ abbreviated 
T:Public Domain
T:Public Domain
T:Public Domain
T:Public Domain
C:Scott Joplin
Z:Public Domain
%%score { ( 1 3 5 ) | ( 2 4 ) }
L:1/8
Q:1/4=100
M:3/4
K:G
V:1 treble nm="Piano" snm="Pno."
V:3 treble 
V:5 treble 
V:2 bass 
V:4 bass 
V:1
!mp!"^Valse Tempo." a g2 b a2 | A G2 B A2 | z6 | z6 |[Q:1/4=96] [G,CE]6 |[Q:1/4=93] [G,C_E]6 | %6
[Q:1/4=90] [F,CD]6 |[Q:1/4=86] [CFA]6 |:!mp!"^Valse cantabile."[Q:1/4=100]"_a tempo." A G2 B A2 | %9
 A G2 B A2 | A c2 B A2 | G6 | e a2 e g2 | B e2 B d2 | G B2 G B2 | A6 | A G2 B A2 | A G2 B A2 | %18
 A c2 B A2 | G6 | e a2 e g2 | B e2 B (dD) | (^C [GB]2) (=C [FA]2) |1 (G4 B2) |!f! (B2"^ten." A4) | %25
"^ten." [^CG]6 | (F2"^ten." =F4) |"^ten." =f6 :|2 [B,DG]6 ||!f! G6 | ^G6 | ^G6 | [E^G]6 | [^E^G]6 | %34
 [=F_A]6 |[Q:1/4=94] [_D=F_A]2[Q:1/4=90] [=DFA]2[Q:1/4=86] [DF=A]2 | %36
"^ten."[Q:1/4=82] _B6[Q:1/4=70] || %37
[K:F]!f![Q:1/4=100]"_a tempo.""^Cantabile." ([CFA]2 [CEB]2 [DF=B]2) | (c [fa]2) (c [fa]2) | %39
 (B [eg]2) (B [Beg]2) | [Adf]4 [Aa]2 | [Ac^da] [Acda]2 [Acdf] [Acdf]2 | %42
 [Acea] [Acea]2 [Ace] [Ace]2 |"_dim." [^Ge] [Ge]2[Q:1/4=98] [Ge] [Ge]2 | %44
[Q:1/4=94] (A2[Q:1/4=92] c2[Q:1/4=90] B2) |!f![Q:1/4=100]"_a tempo." ([CFA]2 [CEB]2 [DF=B]2) | %46
 (c [fa]2) (c [fa]2) | (B [eg]2) (B [Beg]2) | [Adf]4 (de) | [Ff] [Bd]2 [Ff] [F^Gd]2 | %50
 [FAd][Q:1/4=98] [FAc]2 [FAd][Q:1/4=96] [C^FA]2 |[Q:1/4=94] A F2[Q:1/4=92] A G2 | %52
 F2[Q:1/4=87] (Ff[Q:1/4=75] f2) ||[Q:1/4=100]"_a tempo." (fefe_ed) | (=e^ded=d_d) | (_eded_dc) | %56
[Q:1/4=94] ^c4 !fermata!z2 |:[K:Bmin]!p![Q:1/4=100] d B2 f d2 | (bfd)B- B2 | ^A f2 g f2 | %60
 B f2 g f2 | d B2 f d2 | (bfd)B- Bd |!<(! [Bd] [Bd]2 [Bd][Q:1/4=98] [Bce][Bc^e]!<)! | %64
!f![Q:1/4=96] [^Acf]2[Q:1/4=92] !^!C2[Q:1/4=88]!>(![I:staff +1]{/^E,} F,2!>)! | %65
!p![Q:1/4=100]"_a tempo."[I:staff -1] d B2 f d2 | (bfd)B- B2 | ^A f2 g f2 | B f2 g fb | b g2 a gf | %70
 f d2 e dc | c ^A2 g f2 |1 B2 !^!G2 !^!F2 :|2 B2!<(! [D^E^Gd]2 [DFA=c]2!<)! ||!mf! B d2 B d2 | %75
 A3!<(! (Adf)!<)! |!f! a g2 g fe | f3 (dfa) | b d'2 d' e'2 | (d'a) f3 f | %80
[Q:1/4=95] g2[Q:1/4=91] e c2 z |"^ten."[Q:1/4=100]"_a tempo." [^D^F=c]6 |"^ten." [=D=FB]6 | %83
"^ten."!<(! [^CE_B]6!<)! |!ff! [^CG_B]2"^ten." [=CGA]4 |"^ten." [=CFA]6 || %86
[K:G]"^Finale."!mf! A G2 B A2 | A G2 B A2 | A c2 B A2 | G6 | e a2 e g2 | B e2 B d2 | G B2 G B2 | %93
 A6 | A G2 B A2 | A G2 B A2 | A c2 B A2 | G6 | e a2 e g2 |[Q:1/4=95] B e2[Q:1/4=89] B (dD) | %100
 (^C[Q:1/4=85] [GB]2)[Q:1/4=78] (=C !fermata![FA]2) |[Q:1/4=85]"^Andante."!p! (A G2 B A2) | %102
 G2 (g2 a2) | (a g2 b a2) | g2 g'2 g'2 |!f![Q:1/4=100]"_Tempo primo" a g2 b a2 | A G2 B A2 | %107
 A, G,2 B, A,2 | G,2 !fermata![G,_B,_EG]4 |[Q:1/4=72] [G,=B,DG]6!fine! |] %110
V:2
 z6 | z6 | A, G,2 B, A,2 | A,, G,,2 B,, A,,2 |"^rit." A,, G,,2 B,, A,,2 | %5
"^poco a poco" A,, C,2 B,, A,,2 | D,6 | [D,,D,]6 |:!ped! G,,2 [D,G,]2 [D,G,]2!ped-up! | %9
!ped! [E,,E,]2 [E,G,A,]2 [E,G,A,]2!ped-up! |!ped! [D,,D,]4!ped-up! [^D,,^D,]2 | %11
!ped! [E,,E,]2 [E,G,]2 [E,G,]2!ped-up! |!ped! [C,,C,]2 [E,G,C]2 [E,G,C]2!ped-up! | %13
!ped! [D,,D,]2 [D,G,B,]2 [D,G,B,]2!ped-up! |!ped! [A,,,A,,]2 [E,G,A,]2 [A,,,A,,]2!ped-up! | %15
!ped! [D,,D,]6!ped-up! |!ped! G,,2 [D,G,]2 [D,G,]2!ped-up! | %17
!ped! [E,,E,]2 [E,G,A,]2 [E,G,A,]2!ped-up! |!ped! [D,,D,]4!ped-up! [^D,,^D,]2 | %19
!ped! [E,,E,]2 [E,G,]2 [E,G,]2!ped-up! |!ped! [C,,C,]2 [E,G,C]2 [E,G,C]2!ped-up! | %21
!ped! [D,,D,]2 [D,G,B,]2 [D,G,B,]2!ped-up! |!ped! [E,,E,]2 [A,,,A,,]2!ped-up! [D,,D,]2 |1 %23
 [G,,G,]6 | (([^F,,^F,]4 [=F,,=F,]2)) | (([E,,E,]4 [_E,,_E,]2)) | (([D,,D,]4 [C,,C,]2)) | %27
"^ten." [=F,,,=F,,]6 :|2 [G,,G,]2 D,2 G,,2 ||"^ten."!ped! [=F,B,D]6!ped-up! | %30
"^ten."!ped! [E,B,D]6!ped-up! |"^ten."!ped! [^D,B,^D]6!ped-up! |"^ten."!ped! [=D,B,]6!ped-up! | %33
"^ten."!ped! [^C,B,]6!ped-up! |"^ten."!ped! [=C,=C]6!ped-up! | %35
"^rit.   -        -        -        -       -" _C,2 _B,,2 A,,D, | (G,,2 C,4) || %37
[K:F] [F,,F,]2 [G,,G,]2 [^G,,^G,]2 |!ped! [A,,A,]2 [A,CF]2 [A,CF]2!ped-up! | %39
!ped! [C,,C,]4!ped-up! [^C,,^C,]2 |!ped! [D,,D,]6!ped-up! | %41
!ped! [F,,F,]2 [A,C^D]2 [A,CD]2!ped-up! |!ped! [E,,E,]2 [A,CE]2 [A,CE]2!ped-up! | %43
!ped! [E,,E,]2 [^G,DE]2 [G,DE]2!ped-up! | [A,CE]4 [=G,CE]2 | [F,,F,]2 [G,,G,]2 [^G,,^G,]2 | %46
!ped! [A,,A,]2 [A,CF]2 [A,CF]2!ped-up! |!ped! [C,,C,]4!ped-up! [^C,,^C,]2 |!ped! [D,,D,]6!ped-up! | %49
!ped! [B,,,B,,]4!ped-up!"^rit.       poco   a   poco" [=B,,,=B,,]2 | %50
!ped! [C,,C,]4!ped-up! [D,,D,]2 |!ped! [G,,,G,,]4!ped-up! [C,,C,]2 | [F,,F,]6 || %53
"^ten." [^G,=B,D]6 |"^ten." [=G,_B,_D]6 |"^ten." [^F,A,C]6 | ^A,4 !fermata!z2 |: %57
[K:Bmin]!ped! [B,,,B,,]2 [F,B,D]2 [F,B,D]2!ped-up! |!ped! [B,,,B,,]2 [F,B,D]2 [F,B,D]2!ped-up! | %59
!ped! [F,,,F,,]2 [F,^A,E]2 [F,A,E]2!ped-up! |!ped! [B,,,B,,]2 [F,B,D]2 [F,B,D]2!ped-up! | %61
!ped! [B,,,B,,]2 [F,B,D]2 [F,B,D]2!ped-up! |!ped! [B,,,B,,]2 [F,B,D]2 [F,B,D]2!ped-up! | %63
"^rit." [G,,G,]2 [G,,G,]2 [G,,G,]2 | [F,,F,]2 C,2{/^E,,} F,,2 | %65
!ped! [B,,,B,,]2 [F,B,D]2 [F,B,D]2!ped-up! |!ped! [B,,,B,,]2 [F,B,D]2 [F,B,D]2!ped-up! | %67
!ped! [F,,,F,,]2 [F,^A,E]2 [F,A,E]2!ped-up! |!ped! [B,,,B,,]2 [F,B,D]2 [F,B,D]2!ped-up! | %69
!ped! [E,,E,]2 [G,B,E]2 [G,B,E]2!ped-up! |!ped! [B,,,B,,]2 [F,B,D]2 [F,B,D]2!ped-up! | %71
!ped! [F,,,F,,]2 [F,^A,E]2 [F,A,E]2!ped-up! |1 [B,D]2 [G,,G,]2 [F,,F,]2 :|2 %73
 [B,D]2 [B,,B,]2 [A,,A,]2 ||!ped! [G,,G,]2 [E,,E,]2!ped-up! [^E,,^E,]2 | [F,,F,]2 [F,A,]2 [F,A,]2 | %76
!ped! [A,,,A,,]2 [G,A,C]2 [G,A,C]2!ped-up! |!ped! [D,,D,]2 [F,A,D]2 [A,,A,]2!ped-up! | %78
 [G,,G,]2 [B,,B,]2 [_B,,_B,]2 |!ped! [A,,A,]2 [F,A,D]2 [F,A,D]2!ped-up! | %80
"^rit." [A,,A,]2 A, _B,2 x | (A,^G,A,G,=G,F,) | (^G,^^F,G,F,^F,=F,) | (=G,^F,G,F,=F,E,) | %84
 [E,,E,]2"^ten." [_E,,_E,]4 |"^ten." [D,,D,]6 ||[K:G]!ped! G,,2 [D,G,]2 [D,G,]2!ped-up! | %87
!ped! [E,,E,]2 [E,G,A,]2 [E,G,A,]2!ped-up! |!ped! [D,,D,]4!ped-up! [^D,,^D,]2 | %89
!ped! [E,,E,]2 [E,G,]2 [E,G,]2!ped-up! |!ped! [C,,C,]2 [E,G,C]2 [E,G,C]2!ped-up! | %91
!ped! [D,,D,]2 [D,G,B,]2 [D,G,B,]2!ped-up! |!ped! [A,,,A,,]2 [E,G,A,]2 [A,,,A,,]2!ped-up! | %93
!ped! [D,,D,]6!ped-up! |!ped! G,,2 [D,G,]2 [D,G,]2!ped-up! | %95
!ped! [E,,E,]2 [E,G,A,]2 [E,G,A,]2!ped-up! |!ped! z2 [F,A,]2!ped-up! z2 | %97
!ped! [E,,E,]2 [E,G,]2 [E,G,]2!ped-up! |!ped! [C,,C,]2 [E,G,C]2 [E,G,C]2!ped-up! | %99
"^rit. poco  a  poco"!ped! [D,,D,]2 [D,G,B,]2 [D,G,B,]2!ped-up! | %100
!ped! [E,,E,]2 [A,,,A,,]2!ped-up! !fermata![D,,D,]2 | (D,2 E,2 _E,2 | D,2) z2 z2 | (D2 E2 _E2 | %104
 D2) z2 z2 |[I:staff -1] [GBd]6 |[I:staff +1] [G,B,D]6 | [G,,B,,D,]6 | %108
 [G,,B,,D,]2 !fermata![_E,,,_E,,]4 | [G,,,G,,]6 |] %110
V:3
 x6 | x6 | x6 | x6 | x6 | x6 | x6 | x6 |: [B,D]6 | [^CG]6 | [=CF]4 [CF]2 | [B,E]6 | c4 c2 | %13
 G4 [GB]2 | ^C4 [CG]2 | [=CF]6 | [B,D]6 | [^CG]6 | [=CF]4 [CF]2 | [B,E]6 | c4 c2 | G4 z2 | %22
 ^C3 =C C2 |1 [B,D]6 | [B,^D]6 | (_B,4 A,2) | (D4 _E2) | !arpeggio![_EAc]6 :|2 x6 || z2 (gd'c'b) | %30
 z2 (eba^g) | z2 (^d^g^ab) | z2 (eba^g) | z2 (^c^g^f^e) | z2 (=c=fg_a) | x6 | (([D=F]2 [CE]4)) || %37
[K:F] x6 | x6 | x6 | x6 | x6 | x6 | x6 | x6 | x6 | x6 | x6 | x6 | x6 | x6 | [=B,=F]4 [_B,E]2 | %52
 x6 || x6 | x6 | x6 | x6 |:[K:Bmin] x6 | x6 | x6 | x6 | x6 | x6 | x6 | x6 | x6 | x6 | x6 | x6 | %69
 x6 | x6 | x6 |1 x6 :|2 x6 || [DGB]4 [D^G]2 | D3 z z2 | [Ac]6 | [Ad]4 d2 | [dg]4 g2 | f4 z2 | %80
 [AcEG]4 [EG] x | x6 | x6 | x6 | x6 | x6 ||[K:G] [B,D]6 | [^CG]6 | [=CF]4 [CF]2 | [B,E]6 | c4 c2 | %91
 G4 [GB]2 | ^C4 [CG]2 | [=CF]6 | [B,D]6 | [^CG]6 | [=CF]4 [CF]2 | [B,E]6 | c4 c2 | G4 z2 | %100
 ^C3 =C C2 | (B,2 (C4) | B,2) z2 z2 | (B2 (c4) | B2) z2 z2 | x6 | x6 | x6 | x6 | x6 |] %110
V:4
 x6 | x6 | x6 | x6 | x6 | x6 | x6 | x6 |: x6 | x6 | z2 [F,A,]2 z2 | x6 | x6 | x6 | x6 | %15
 z2 [D,F,A,]2 [D,F,A,]2 | x6 | x6 | z2 [F,A,]2 z2 | x6 | x6 | x6 | x6 |1 x6 | x6 | x6 | x6 | x6 :|2 %28
 x6 || x6 | x6 | x6 | x6 | x6 | x6 | x6 | x6 ||[K:F] x6 | x6 | z2 [B,CE]2 z2 | z2 [A,DF]2 [A,DF]2 | %41
 x6 | x6 | x6 | x6 | x6 | x6 | z2 [B,CE]2 z2 | z2 [A,DF]2 z2 | z2 [F,B,D]2 z2 | z2 [F,A,C]2 z2 | %51
 z2 [D,F,G,]2 z2 |[I:staff -1] ([A,C]2[I:staff +1] (([B,_D]2) [A,C]2)) || x6 | x6 | x6 | %56
 ^F,2 ^F,,2 x2 |:[K:Bmin] x6 | x6 | x6 | x6 | x6 | x6 | x6 | x6 | x6 | x6 | x6 | x6 | x6 | x6 | %71
 x6 |1 x6 :|2 x6 || x6 | x6 | x6 | x6 | x6 | x6 | x6 | x6 | x6 | x6 | x6 | x6 ||[K:G] x6 | x6 | %88
 z2 [F,A,]2 z2 | x6 | x6 | x6 | x6 | z2 [D,F,A,]2 [D,F,A,]2 | x6 | x6 | [D,,D,]4 [^D,,^D,]2 | x6 | %98
 x6 | x6 | x6 | G,,6 | G,,2 x2 x2 | G,6 | G,2 x2 x2 | x6 | x6 | x6 | x6 | x6 |] %110
V:5
 x6 | x6 | x6 | x6 | x6 | x6 | x6 | x6 |: x6 | x6 | x6 | x6 | x6 | x6 | x6 | x6 | x6 | x6 | x6 | %19
 x6 | x6 | x6 | x6 |1 x6 | x6 | x6 | A,6 | x6 :|2 x6 || x6 | x6 | x6 | x6 | x6 | x6 | x6 | x6 || %37
[K:F] x6 | x6 | x6 | x6 | x6 | x6 | x6 | x6 | x6 | x6 | x6 | x6 | x6 | x6 | x6 | x6 || x6 | x6 | %55
 x6 | x6 |:[K:Bmin] x6 | x6 | x6 | x6 | x6 | x6 | x6 | x6 | x6 | x6 | x6 | x6 | x6 | x6 | x6 |1 %72
 x6 :|2 x6 || x6 | x6 | x6 | x6 | x6 | x6 | x6 | x6 | x6 | x6 | x6 | x6 ||[K:G] x6 | x6 | x6 | x6 | %90
 x6 | x6 | x6 | x6 | x6 | x6 | x6 | x6 | x6 | x6 | x6 | x6 | x6 | x6 | x6 | x6 | x6 | x6 | x6 | %109
 x6 |] %110

